!!!COM: Bach, Johann Sebastian
!!!CDT: 1685/3//-1750/7/28/
!!!OTL@@DE: Hilf, Herr Jesu, lass gelingen
!!!SCT: BWV 248
**kern	**kern	**kern	**kern
*M3/4	*M3/4	*M3/4	*M3/4
=1-	=1-	=1-	=1-
4.F	4.f	4.a	4.cc
8F	8f	8a	8cc
8A	8c	8f	8a
8A	8c	8f	8a
=2	=2	=2	=2
4.C	4.c	4.f	4.g
8C	8c	8f	8g
8C	8c	8e	8g
8C	8c	8e	8g
=3	=3	=3	=3
4.G	4.B-	4.d	4.b-
8G	8B-	8d	8b-
8E-	8B-	8g	8cc
8E-	8B-	8g	8cc
=4	=4	=4	=4
4.BB-	4.c	4.f	4.dd
8BB-	8c	8f	8dd
8D	8B-	8f	8dd
8D	8B-	8f	8dd
=5	=5	=5	=5
4.F	4.A	4.f	4.cc
8F	8A	8f	8cc
8F	8A	8f	8cc
8F	8A	8f	8cc
=6	=6	=6	=6
4.D	4.f	4.a	4.dd
8D	8f	8a	8dd
8G	8d	8g	8b-
8G	8d	8g	8b-
=7	=7	=7	=7
4.E	4.c	4.g	4.cc
8E	8c	8g	8cc
8F	8A	8f	8cc
8F	8A	8f	8cc
=8	=8	=8	=8
4.D	4.d	4.f	4.b-
8D	8d	8f	8b-
8F	8c	8g	8a
8F	8c	8g	8a
=9	=9	=9	=9
*-	*-	*-	*-
